X:1
T:St. Osmund, 87.87.47
T:St. Osmund, 87.87.47
T:Herbert Stephen Irons, 1870
T:Public Domain Courtesy of the Cyber Hymnal™
C:Herbert Stephen Irons, 1870
Z:Public Domain
Z:Courtesy of the Cyber Hymnal™
%%score ( 1 2 ) ( 3 4 )
L:1/8
Q:1/4=115
M:4/4
K:F
V:1 treble 
V:2 treble 
V:3 bass 
V:4 bass 
V:1
 [FA]2 F2 [Fd]2 [Fc]2 | c3 z B [FB]2 [FA]2 | [FA]2 [_EA]2 [DA]2 [DG]2 | [DF]2 [=B,F]2 [CE]4 | %4
 [EG]2 [_EG]2 [D^F]2 [DA]2 | d3 z c [Gc]2 [GB]2 | [DB]2 B2 [^CA]2 [DA]2 | A2 z [^CA]4 x | %8
 [^CA]4 [_E^c]4 | [DB]4 [DB]4 | [DB]4 [DB]4 | [CB]4 [FA]4 | [FG]4 [EG]4 | F8 |] %14
V:2
 x2 F2 x4 | F2 E2 x5 | x8 | x8 | x8 | D2 ^F2 x5 | x2 (ED) x4 | D3 (G2 E) x2 | x8 | x8 | x8 | x8 | %12
 x8 | F8 |] %14
V:3
 [F,C]2 [F,A,]2 [F,B,]2 [F,A,]2 | [C,G,]2 [C,C]2 [F,C]2 [F,C]2 x | %2
 [F,C]2 [F,C]2 [B,,B,]2 [B,,B,]2 | [D,A,]2 [D,F,]2 [C,G,]4 | [C,C]2 (CB,) [D,A,]2 ^F,2 | %5
 [B,,G,]2 (A,C) [G,,D]2 [G,,D]2 x | [G,,G,]2 (G,F,) [A,,E,]2 F,2 | [B,,F,]2 [B,,D,]2 [A,,E,]4 | %8
 [F,,F,]4 [A,,F,]4 | [B,,F,]4 [B,,F,]4 | [G,,G,]4 G,4 | [E,G,]4 (A,2 B,2) | [C,C]4 (C2 B,2) | %13
 [F,,A,]8 |] %14
V:4
 x8 | x9 | x8 | x8 | x2 C,2 x (D,C,) x | x2 A,,2 x5 | x2 G,,2 x (D,C,) x | x8 | x8 | x8 | x4 G,4 | %11
 x4 F,4 | x4 C,4 | x8 |] %14

